X: 1
T: Doodely Doodely Dank
M: 9/8
L: 1/8
R: slip jig
K: Dmaj
BdB BAB g2 A | BdB B2 e dBG | BdB BAB g2 e | faf efe dBA:|
fdd def g2 e | fdd dcd ecA | fdd def g2 e | fed edB efg:|
